svg/furkot/freepik/tower.svg

<svg viewBox="0 0 512 512" xmlns="http://www.w3.org/2000/svg"><path d="m240.871 0-5.051 23.358 9.663 2.085-9.16 42.413-7.03-1.402-89.535 414.448h-66.182v31.605h331.91v-31.605h-63.996l80.541-372.815-6.979-1.619 9.161-42.413 9.659 2.09 5.055-23.358zm3.141 348.285-11.347 52.533-36.915-7.976 11.347-52.537c2.205-10.194 12.256-16.67 22.45-14.475 10.189 2.214 16.674 12.265 14.465 22.455zm22.998-106.483-11.342 52.529-36.919-7.975 11.351-52.538c2.205-10.189 12.251-16.67 22.454-14.465 10.194 2.205 16.666 12.256 14.456 22.449zm-25.258-61.924 11.347-52.538c2.204-10.189 12.251-16.67 22.445-14.469 10.198 2.204 16.67 12.251 14.474 22.445l-11.347 52.528zm87.45 186.82-11.347 52.524-36.915-7.975 11.343-52.538c2.209-10.189 12.251-16.67 22.449-14.47 10.194 2.21 16.675 12.261 14.47 22.459zm23.008-106.487-11.352 52.533-36.919-7.975 11.342-52.533c2.21-10.194 12.251-16.674 22.45-14.474 10.198 2.205 16.674 12.246 14.479 22.449zm23.008-106.496-11.352 52.538-36.919-7.98 11.351-52.533c2.2-10.194 12.247-16.674 22.441-14.47 10.198 2.21 16.679 12.261 14.479 22.445z"/></svg>

<svg xmlns="http://www.w3.org/2000/svg" viewBox="0 0 512 512"><path d="M240.871 0L235.82 23.358 245.483 25.443 236.323 67.856 229.293 66.454 139.758 480.902H73.576V512.507H405.486V480.902H341.49L422.031 108.087 415.052 106.468 424.213 64.055 433.872 66.145 438.927 42.787 240.871 0ZM244.012 348.285L232.665 400.818 195.75 392.842 207.097 340.305C209.302 330.111 219.353 323.635 229.547 325.83 239.736 328.044 246.221 338.095 244.012 348.285ZM267.01 241.802L255.668 294.331 218.749 286.356 230.1 233.818C232.305 223.629 242.351 217.148 252.554 219.353 262.748 221.558 269.22 231.609 267.01 241.802ZM241.752 179.878L253.099 127.34C255.303 117.151 265.35 110.67 275.544 112.871 285.742 115.075 292.214 125.122 290.018 135.316L278.671 187.844 241.752 179.878ZM329.202 366.698L317.855 419.222 280.94 411.247 292.283 358.709C294.492 348.52 304.534 342.039 314.732 344.239 324.926 346.449 331.407 356.5 329.202 366.698ZM352.21 260.211L340.858 312.744 303.939 304.769 315.281 252.236C317.491 242.042 327.532 235.562 337.731 237.762 347.929 239.967 354.405 250.008 352.21 260.211ZM375.218 153.715L363.866 206.253 326.947 198.273 338.298 145.74C340.498 135.546 350.545 129.066 360.739 131.27 370.937 133.48 377.418 143.531 375.218 153.715Z"/></svg>
